X:194
T:Merry Harriers (reel), The
B:CRE2.249 (FiairÃÂÃÂÃÂÃÂ­ FeÃÂÃÂÃÂÃÂ¡)
F:file ID: cre.2/194merry_h
L:1/8
M:C
R:reel
Q:180
K:Am
Bd|eAAA eg^fd|eAA2 BGBd|eA~A2 egg2|agge d2 (3Bcd|
eAAA eg^fd|eAA2 BGBd|eA~A2 egg2|agge d2||
(3Bcd|egg2 bgg2|eggd BGBd|egg2 bgg2|agge d2 (3Bcd|
egg2 bgg2|eggd BGBd|egg2 bgg2|agge d2||

%%%

